img/logotype.svg

<svg width="613" height="401" viewBox="0 0 613 401" fill="none" xmlns="http://www.w3.org/2000/svg">
<path fill-rule="evenodd" clip-rule="evenodd" d="M567.344 344.511H567.361L578.411 375.425L612.88 396.587V400.041H587.182H473.94H430.71V396.587L465.17 375.425L456.979 352.35L331.639 0H444.251L567.344 344.511Z" fill="#EFEFEF"/>
<path fill-rule="evenodd" clip-rule="evenodd" d="M300.794 247.986L217.997 381.61H144.012V24.6143L179.093 4.06381V0.609375H0V4.06381L34.4603 24.6143V375.413L0 396.576V400.03C104.831 400.03 209.663 400.03 314.494 400.03V247.986H300.794Z" fill="#EFEFEF"/>
</svg>

<svg width="613" height="401" fill="none" xmlns="http://www.w3.org/2000/svg"><path fill-rule="evenodd" clip-rule="evenodd" d="M567.344 344.511h.017l11.05 30.914 34.469 21.162v3.454H430.71v-3.454l34.46-21.162-8.191-23.075L331.639 0h112.612l123.093 344.511zm-266.55-96.525L217.997 381.61h-73.985V24.614l35.081-20.55V.609H0v3.455l34.46 20.55v350.799L0 396.576v3.454h314.494V247.986h-13.7z" fill="#EFEFEF"/></svg>
